X:1
T:Title
L:1/8
M:4/4
K:Eb
V:1 treble nm="Grand Piano"
V:1
 z4 z2 z[Q:1/4=100] C | CDEG- G3 E | F2 CE- E3 C | CDEG- G2 F2 | A2 c2 G2 G2 | =A_GGG- G3 D | %6
 F2 GE- E2 z G | F2 FA GFED | C8 | G G2 A G2 EE | F2 DE F4 | F F2 G F2 DD | E2 FF G4 | %13
 F F2 G A2 AA | =B2 GA B2 G2 | c2 GG A2 FD | G8 |] %17

